X: 17109
T: Heidi's Dream
R: jig
M: 6/8
K: Amajor
Aca gec|B2A BAE|F3 FAF|c2 B3 c|
Aca gec|B2A Bce|f3 fec|1 c2 B3 c:|2 B3 BAG||
|:F3 FEC|EFA FEC|A,3 A,B,A,|C2 B,2 CE|
F3 FEC|EFA Bce|1 f2 e2 ef|c2 B2 AG:|2 f3 fec|B6||

